svgs/thin/conveyor-belt-boxes.svg

<svg xmlns="http://www.w3.org/2000/svg" viewBox="0 0 640 512"><!-- Font Awesome Pro 6.0.0-alpha2 by @fontawesome - https://fontawesome.com License - https://fontawesome.com/license (Commercial License) --><path d="M96 288H304C321.6 288 336 273.602 336 256V32C336 14.398 321.6 0 304 0H96C78.4 0 64 14.398 64 32V256C64 273.602 78.4 288 96 288ZM80 32C80 23.176 87.178 16 96 16H304C312.822 16 320 23.176 320 32V256C320 264.824 312.822 272 304 272H96C87.178 272 80 264.824 80 256V32ZM400 288H544C561.6 288 576 273.602 576 256V96C576 78.398 561.6 64 544 64H400C382.4 64 368 78.398 368 96V256C368 273.602 382.4 288 400 288ZM384 96C384 87.176 391.178 80 400 80H544C552.822 80 560 87.176 560 96V256C560 264.824 552.822 272 544 272H400C391.178 272 384 264.824 384 256V96ZM528 368C501.375 368 480 389.375 480 416S501.375 464 528 464S576 442.625 576 416S554.625 368 528 368ZM528 448C510.355 448 496 433.645 496 416S510.355 384 528 384S560 398.355 560 416S545.645 448 528 448ZM320 368C293.375 368 272 389.375 272 416S293.375 464 320 464S368 442.625 368 416S346.625 368 320 368ZM320 448C302.355 448 288 433.645 288 416S302.355 384 320 384S352 398.355 352 416S337.645 448 320 448ZM544 320H96C42.98 320 0 362.98 0 416S42.98 512 96 512H544C597.02 512 640 469.02 640 416S597.02 320 544 320ZM544 496H96C51.889 496 16 460.111 16 416S51.889 336 96 336H544C588.111 336 624 371.889 624 416S588.111 496 544 496ZM112 368C85.375 368 64 389.375 64 416S85.375 464 112 464S160 442.625 160 416S138.625 368 112 368ZM112 448C94.355 448 80 433.645 80 416S94.355 384 112 384S144 398.355 144 416S129.645 448 112 448Z"/></svg>

<svg xmlns="http://www.w3.org/2000/svg" viewBox="0 0 640 512"><!--! Font Awesome Pro 6.0.0-alpha3 by @fontawesome - https://fontawesome.com License - https://fontawesome.com/license (Commercial License) --><path d="M96 288h208c17.6 0 32-14.4 32-32V32c0-17.6-14.4-32-32-32H96C78.4 0 64 14.4 64 32v224C64 273.6 78.4 288 96 288zM80 32c0-8.824 7.178-16 16-16h208C312.8 16 320 23.18 320 32v224c0 8.824-7.178 16-16 16H96C87.18 272 80 264.8 80 256V32zM400 288H544c17.6 0 32-14.4 32-32V96c0-17.6-14.4-32-32-32h-144c-17.6 0-32 14.4-32 32v160C368 273.6 382.4 288 400 288zM384 96c0-8.824 7.178-16 16-16H544c8.822 0 16 7.176 16 16v160c0 8.824-7.178 16-16 16h-144C391.2 272 384 264.8 384 256V96zM528 368c-26.62 0-48 21.38-48 48s21.38 48 48 48S576 442.6 576 416S554.6 368 528 368zM528 448c-17.64 0-32-14.36-32-32s14.36-32 32-32s32 14.36 32 32S545.6 448 528 448zM320 368c-26.62 0-48 21.38-48 48s21.38 48 48 48s48-21.38 48-48S346.6 368 320 368zM320 448c-17.64 0-32-14.36-32-32s14.36-32 32-32s32 14.36 32 32S337.6 448 320 448zM544 320H96c-53.02 0-96 42.98-96 96s42.98 96 96 96h448c53.02 0 96-42.98 96-96S597 320 544 320zM544 496H96c-44.11 0-80-35.89-80-80s35.89-80 80-80h448c44.11 0 80 35.89 80 80S588.1 496 544 496zM112 368C85.38 368 64 389.4 64 416s21.38 48 48 48S160 442.6 160 416S138.6 368 112 368zM112 448c-17.64 0-32-14.36-32-32s14.36-32 32-32s32 14.36 32 32S129.6 448 112 448z"/></svg>
